X: 1
T: Sk\aanning    [F]
T: Nuuskapolkka
O: arr. Carl J.Johnson
S: Printed page of unknown origin from Marilyn Butler
M: 2/4
L: 1/8
K: F
C |\
"F"F-F AA | "C7"G-G BB | AA GG |\
[1 "F"FA C :|2 "F"F3 |: A/B/ |\
"F"cc AF |
"Bb"[dBF]z zG/A/ |\
"C7"BB GE | "F"[cAFC]z zA/B/ "I"|\
"F"cc AF | "Bb"[dB][dB] "F"[cAF]>[BFD] |\
[AC][AC] "C7"[GB,][GB,] | "F"[F3C3A,3] :|

%%sep 1 1 500

